X: 11924
T: Empty Barrel, The
R: jig
M: 6/8
K: Bminor
|:BDF BDF|BAB dcd|fcA fcA|~g3 edc|
BDF BDF|BAB dcd|fcA edc|1 BAc B2A:|2 BAc B2f||
|:geB Geg|fdB FDF|~e3 ecG|dBF dBf|
geB Geg|fdB Fed|~f3 edc|1 BAc B2 f:|2 BAc B3||

